apps/www/public/badge-made-with-supabase-dark.svg

<svg width="168" height="30" viewBox="0 0 168 30" fill="none" xmlns="http://www.w3.org/2000/svg">
<g clip-path="url(#clip0_306_6257)">
<rect x="0.5" y="0.5" width="167" height="29" rx="3.5" fill="#232323"/>
<g clip-path="url(#clip1_306_6257)">
<path d="M18.6826 22.0143C18.3153 22.4839 17.5706 22.2266 17.5618 21.6269L17.4324 12.8564H23.2404C24.2924 12.8564 24.8791 14.0901 24.225 14.9267L18.6826 22.0143Z" fill="url(#paint0_linear_306_6257)"/>
<path d="M18.6826 22.0143C18.3153 22.4839 17.5706 22.2266 17.5618 21.6269L17.4324 12.8564H23.2404C24.2924 12.8564 24.8791 14.0901 24.225 14.9267L18.6826 22.0143Z" fill="url(#paint1_linear_306_6257)" fill-opacity="0.2"/>
<path d="M16.3204 7.90167C16.6877 7.432 17.4324 7.68934 17.4412 8.289L17.4979 17.0595H11.7626C10.7106 17.0595 10.1238 15.8258 10.778 14.9892L16.3204 7.90167Z" fill="#3ECF8E"/>
</g>
<path d="M43.9429 20H42.6819V12.824L39.5359 20H38.3659L35.2459 12.824V20H33.9849V10.783H35.7139L38.9639 18.284L42.2399 10.783H43.9429V20ZM45.7032 18.323C45.7032 17.205 46.5222 16.581 47.6012 16.425L49.2912 16.178C49.6682 16.126 49.7722 15.931 49.7722 15.71C49.7722 15.099 49.3692 14.592 48.4202 14.592C47.5622 14.592 47.0812 15.125 47.0032 15.853L45.8332 15.58C45.9632 14.384 47.0422 13.552 48.3942 13.552C50.2662 13.552 50.9942 14.618 50.9942 15.84V18.973C50.9942 19.519 51.0462 19.844 51.0722 20H49.8762C49.8502 19.844 49.8112 19.61 49.8112 19.155C49.5382 19.597 48.9142 20.195 47.7962 20.195C46.5222 20.195 45.7032 19.311 45.7032 18.323ZM47.9652 19.168C48.9662 19.168 49.7722 18.687 49.7722 17.322V17.036L47.8612 17.322C47.3412 17.4 46.9512 17.699 46.9512 18.258C46.9512 18.726 47.3412 19.168 47.9652 19.168ZM53.6259 16.854C53.6259 18.141 54.2889 19.09 55.4589 19.09C56.5769 19.09 57.2659 18.115 57.2659 16.828C57.2659 15.541 56.5899 14.657 55.4719 14.657C54.3539 14.657 53.6259 15.567 53.6259 16.854ZM57.2789 19.155V19.051C56.9799 19.649 56.3169 20.169 55.3419 20.169C53.5089 20.169 52.3779 18.713 52.3779 16.854C52.3779 15.086 53.5739 13.578 55.3419 13.578C56.4469 13.578 57.0449 14.124 57.2529 14.631V10.588H58.4619V18.843C58.4619 19.441 58.5139 19.896 58.5269 20H57.3439C57.3179 19.857 57.2789 19.532 57.2789 19.155ZM61.3335 16.23H64.7525C64.7265 15.333 64.1415 14.631 63.0365 14.631C62.0095 14.631 61.3855 15.424 61.3335 16.23ZM64.9345 17.855L65.9875 18.219C65.6365 19.324 64.6355 20.195 63.1795 20.195C61.5025 20.195 60.0335 18.973 60.0335 16.854C60.0335 14.891 61.4505 13.552 63.0235 13.552C64.9475 13.552 66.0265 14.878 66.0265 16.828C66.0265 16.984 66.0135 17.14 66.0005 17.218H61.2945C61.3205 18.336 62.1265 19.116 63.1795 19.116C64.1935 19.116 64.7005 18.557 64.9345 17.855ZM74.3594 13.747H75.6204L77.2454 18.453L78.6234 13.747H79.9104L77.8824 20H76.6214L74.9574 15.242L73.3324 20H72.0454L69.9914 13.747H71.3304L72.7344 18.453L74.3594 13.747ZM82.354 20H81.145V13.747H82.354V20ZM80.872 11.381C80.872 10.887 81.262 10.497 81.743 10.497C82.237 10.497 82.627 10.887 82.627 11.381C82.627 11.862 82.237 12.252 81.743 12.252C81.262 12.252 80.872 11.862 80.872 11.381ZM86.0711 11.771V13.747H87.4231V14.852H86.0711V18.102C86.0711 18.674 86.3051 18.96 86.9421 18.96C87.0981 18.96 87.3191 18.934 87.4231 18.908V19.948C87.3191 19.987 87.0071 20.065 86.5911 20.065C85.5251 20.065 84.8491 19.415 84.8491 18.284V14.852H83.6531V13.747H83.9911C84.6671 13.747 84.9531 13.331 84.9531 12.785V11.771H86.0711ZM90.2762 16.321V20H89.0542V10.588H90.2762V14.475C90.7312 13.812 91.4592 13.565 92.1742 13.565C93.6692 13.565 94.4102 14.644 94.4102 16.035V20H93.1882V16.243C93.1882 15.372 92.8242 14.67 91.7322 14.67C90.7962 14.67 90.3022 15.398 90.2762 16.321ZM105.61 12.876L104.466 13.279C104.362 12.616 103.803 11.706 102.516 11.706C101.476 11.706 100.735 12.382 100.735 13.24C100.735 13.903 101.138 14.41 101.918 14.579L103.296 14.878C104.83 15.216 105.688 16.178 105.688 17.465C105.688 18.895 104.466 20.195 102.503 20.195C100.28 20.195 99.227 18.765 99.058 17.452L100.28 17.062C100.371 18.089 101.099 19.038 102.49 19.038C103.764 19.038 104.388 18.375 104.388 17.569C104.388 16.906 103.933 16.334 103.01 16.139L101.697 15.853C100.384 15.567 99.448 14.709 99.448 13.331C99.448 11.888 100.787 10.588 102.49 10.588C104.57 10.588 105.402 11.875 105.61 12.876ZM111.101 19.246C110.763 19.896 109.983 20.195 109.255 20.195C107.799 20.195 106.915 19.103 106.915 17.686V13.747H108.137V17.504C108.137 18.362 108.527 19.116 109.554 19.116C110.542 19.116 111.036 18.466 111.036 17.517V13.747H112.258V18.843C112.258 19.337 112.297 19.779 112.323 20H111.153C111.127 19.857 111.101 19.506 111.101 19.246ZM115.552 22.47H114.343V13.747H115.526V14.722C115.864 14.098 116.605 13.604 117.619 13.604C119.491 13.604 120.492 15.047 120.492 16.867C120.492 18.726 119.413 20.169 117.58 20.169C116.618 20.169 115.89 19.714 115.552 19.155V22.47ZM119.244 16.867C119.244 15.619 118.542 14.683 117.398 14.683C116.28 14.683 115.539 15.619 115.539 16.867C115.539 18.154 116.28 19.077 117.398 19.077C118.529 19.077 119.244 18.154 119.244 16.867ZM121.659 18.323C121.659 17.205 122.478 16.581 123.557 16.425L125.247 16.178C125.624 16.126 125.728 15.931 125.728 15.71C125.728 15.099 125.325 14.592 124.376 14.592C123.518 14.592 123.037 15.125 122.959 15.853L121.789 15.58C121.919 14.384 122.998 13.552 124.35 13.552C126.222 13.552 126.95 14.618 126.95 15.84V18.973C126.95 19.519 127.002 19.844 127.028 20H125.832C125.806 19.844 125.767 19.61 125.767 19.155C125.494 19.597 124.87 20.195 123.752 20.195C122.478 20.195 121.659 19.311 121.659 18.323ZM123.921 19.168C124.922 19.168 125.728 18.687 125.728 17.322V17.036L123.817 17.322C123.297 17.4 122.907 17.699 122.907 18.258C122.907 18.726 123.297 19.168 123.921 19.168ZM130.063 20H128.854V10.588H130.063V14.631C130.362 14.072 131.09 13.565 132.13 13.565C134.028 13.565 135.003 15.021 135.003 16.841C135.003 18.7 133.95 20.169 132.091 20.169C131.168 20.169 130.453 19.766 130.063 19.09V20ZM133.755 16.841C133.755 15.489 133.04 14.644 131.909 14.644C130.83 14.644 130.05 15.489 130.05 16.841C130.05 18.193 130.83 19.077 131.909 19.077C133.027 19.077 133.755 18.193 133.755 16.841ZM136.17 18.323C136.17 17.205 136.989 16.581 138.068 16.425L139.758 16.178C140.135 16.126 140.239 15.931 140.239 15.71C140.239 15.099 139.836 14.592 138.887 14.592C138.029 14.592 137.548 15.125 137.47 15.853L136.3 15.58C136.43 14.384 137.509 13.552 138.861 13.552C140.733 13.552 141.461 14.618 141.461 15.84V18.973C141.461 19.519 141.513 19.844 141.539 20H140.343C140.317 19.844 140.278 19.61 140.278 19.155C140.005 19.597 139.381 20.195 138.263 20.195C136.989 20.195 136.17 19.311 136.17 18.323ZM138.432 19.168C139.433 19.168 140.239 18.687 140.239 17.322V17.036L138.328 17.322C137.808 17.4 137.418 17.699 137.418 18.258C137.418 18.726 137.808 19.168 138.432 19.168ZM142.78 18.375L143.885 17.985C143.963 18.635 144.457 19.155 145.341 19.155C146.03 19.155 146.407 18.765 146.407 18.323C146.407 17.933 146.121 17.634 145.601 17.517L144.535 17.283C143.56 17.075 142.975 16.412 142.975 15.528C142.975 14.462 143.976 13.552 145.198 13.552C146.914 13.552 147.447 14.67 147.577 15.229L146.498 15.632C146.446 15.307 146.186 14.592 145.198 14.592C144.574 14.592 144.158 14.995 144.158 15.424C144.158 15.801 144.392 16.074 144.873 16.178L145.887 16.399C147.018 16.646 147.616 17.335 147.616 18.258C147.616 19.142 146.875 20.195 145.328 20.195C143.612 20.195 142.884 19.09 142.78 18.375ZM149.972 16.23H153.391C153.365 15.333 152.78 14.631 151.675 14.631C150.648 14.631 150.024 15.424 149.972 16.23ZM153.573 17.855L154.626 18.219C154.275 19.324 153.274 20.195 151.818 20.195C150.141 20.195 148.672 18.973 148.672 16.854C148.672 14.891 150.089 13.552 151.662 13.552C153.586 13.552 154.665 14.878 154.665 16.828C154.665 16.984 154.652 17.14 154.639 17.218H149.933C149.959 18.336 150.765 19.116 151.818 19.116C152.832 19.116 153.339 18.557 153.573 17.855Z" fill="#EDEDED"/>
<rect x="0.5" y="0.5" width="167" height="29" rx="3.5" stroke="#2E2E2E"/>
</g>
<defs>
<linearGradient id="paint0_linear_306_6257" x1="17.4324" y1="14.801" x2="22.6177" y2="16.9428" gradientUnits="userSpaceOnUse">
<stop stop-color="#249361"/>
<stop offset="1" stop-color="#3ECF8E"/>
</linearGradient>
<linearGradient id="paint1_linear_306_6257" x1="15.1438" y1="11.6194" x2="17.5544" y2="16.0886" gradientUnits="userSpaceOnUse">
<stop/>
<stop offset="1" stop-opacity="0"/>
</linearGradient>
<clipPath id="clip0_306_6257">
<rect width="168" height="30" fill="white"/>
</clipPath>
<clipPath id="clip1_306_6257">
<rect width="14" height="14.7368" fill="white" transform="translate(10.5 7.63159)"/>
</clipPath>
</defs>
</svg>

<svg xmlns="http://www.w3.org/2000/svg" width="168" height="30" fill="none" viewBox="0 0 168 30"><g clip-path="url(#a)"><rect width="167" height="29" x=".5" y=".5" fill="#232323" rx="3.5"/><g clip-path="url(#b)"><path fill="url(#c)" d="M18.683 22.014c-.368.47-1.112.213-1.121-.387l-.13-8.77h5.808c1.052 0 1.64 1.233.985 2.07z"/><path fill="url(#d)" fill-opacity=".2" d="M18.683 22.014c-.368.47-1.112.213-1.121-.387l-.13-8.77h5.808c1.052 0 1.64 1.233.985 2.07z"/><path fill="#3ecf8e" d="M16.32 7.902c.368-.47 1.112-.213 1.121.387l.057 8.77h-5.735c-1.052 0-1.64-1.233-.985-2.07z"/></g><path fill="#ededed" d="M43.943 20h-1.261v-7.176L39.536 20h-1.17l-3.12-7.176V20h-1.261v-9.217h1.729l3.25 7.501 3.276-7.501h1.703zm1.76-1.677c0-1.118.82-1.742 1.898-1.898l1.69-.247c.377-.052.481-.247.481-.468 0-.611-.403-1.118-1.352-1.118-.858 0-1.339.533-1.417 1.261l-1.17-.273c.13-1.196 1.21-2.028 2.561-2.028 1.872 0 2.6 1.066 2.6 2.288v3.133c0 .546.052.871.078 1.027h-1.196c-.026-.156-.065-.39-.065-.845-.273.442-.897 1.04-2.015 1.04-1.274 0-2.093-.884-2.093-1.872m2.262.845c1.001 0 1.807-.481 1.807-1.846v-.286l-1.91.286c-.52.078-.91.377-.91.936 0 .468.39.91 1.013.91m5.66-2.314c0 1.287.664 2.236 1.834 2.236 1.118 0 1.807-.975 1.807-2.262s-.676-2.171-1.794-2.171-1.846.91-1.846 2.197m3.654 2.301v-.104c-.3.598-.962 1.118-1.937 1.118-1.833 0-2.964-1.456-2.964-3.315 0-1.768 1.196-3.276 2.964-3.276 1.105 0 1.703.546 1.91 1.053v-4.043h1.21v8.255c0 .598.052 1.053.065 1.157h-1.183a5 5 0 0 1-.065-.845m4.054-2.925h3.42c-.026-.897-.612-1.599-1.717-1.599-1.026 0-1.65.793-1.703 1.599m3.602 1.625 1.052.364c-.35 1.105-1.352 1.976-2.807 1.976-1.678 0-3.147-1.222-3.147-3.341 0-1.963 1.417-3.302 2.99-3.302 1.925 0 3.003 1.326 3.003 3.276 0 .156-.013.312-.025.39h-4.707c.027 1.118.833 1.898 1.886 1.898 1.014 0 1.52-.559 1.755-1.261m9.424-4.108h1.261l1.625 4.706 1.378-4.706h1.287L77.882 20h-1.26l-1.665-4.758L73.332 20h-1.287l-2.054-6.253h1.34l1.403 4.706zM82.354 20h-1.209v-6.253h1.209zm-1.482-8.619a.877.877 0 1 1 .871.871.87.87 0 0 1-.871-.871m5.2.39v1.976h1.351v1.105h-1.352v3.25c0 .572.234.858.871.858.156 0 .377-.026.481-.052v1.04a2.7 2.7 0 0 1-.832.117c-1.066 0-1.742-.65-1.742-1.781v-3.432h-1.196v-1.105h.338c.676 0 .962-.416.962-.962v-1.014zm4.204 4.55V20h-1.222v-9.412h1.222v3.887c.455-.663 1.183-.91 1.898-.91 1.495 0 2.236 1.079 2.236 2.47V20h-1.222v-3.757c0-.871-.364-1.573-1.456-1.573-.936 0-1.43.728-1.456 1.651m15.334-3.445-1.144.403c-.104-.663-.663-1.573-1.95-1.573-1.04 0-1.781.676-1.781 1.534 0 .663.403 1.17 1.183 1.339l1.378.299c1.534.338 2.392 1.3 2.392 2.587 0 1.43-1.222 2.73-3.185 2.73-2.223 0-3.276-1.43-3.445-2.743l1.222-.39c.091 1.027.819 1.976 2.21 1.976 1.274 0 1.898-.663 1.898-1.469 0-.663-.455-1.235-1.378-1.43l-1.313-.286c-1.313-.286-2.249-1.144-2.249-2.522 0-1.443 1.339-2.743 3.042-2.743 2.08 0 2.912 1.287 3.12 2.288m5.491 6.37c-.338.65-1.118.949-1.846.949-1.456 0-2.34-1.092-2.34-2.509v-3.939h1.222v3.757c0 .858.39 1.612 1.417 1.612.988 0 1.482-.65 1.482-1.599v-3.77h1.222v5.096c0 .494.039.936.065 1.157h-1.17a5.5 5.5 0 0 1-.052-.754m4.451 3.224h-1.209v-8.723h1.183v.975c.338-.624 1.079-1.118 2.093-1.118 1.872 0 2.873 1.443 2.873 3.263 0 1.859-1.079 3.302-2.912 3.302-.962 0-1.69-.455-2.028-1.014zm3.692-5.603c0-1.248-.702-2.184-1.846-2.184-1.118 0-1.859.936-1.859 2.184 0 1.287.741 2.21 1.859 2.21 1.131 0 1.846-.923 1.846-2.21m2.415 1.456c0-1.118.819-1.742 1.898-1.898l1.69-.247c.377-.052.481-.247.481-.468 0-.611-.403-1.118-1.352-1.118-.858 0-1.339.533-1.417 1.261l-1.17-.273c.13-1.196 1.209-2.028 2.561-2.028 1.872 0 2.6 1.066 2.6 2.288v3.133c0 .546.052.871.078 1.027h-1.196c-.026-.156-.065-.39-.065-.845-.273.442-.897 1.04-2.015 1.04-1.274 0-2.093-.884-2.093-1.872m2.262.845c1.001 0 1.807-.481 1.807-1.846v-.286l-1.911.286c-.52.078-.91.377-.91.936 0 .468.39.91 1.014.91m6.142.832h-1.209v-9.412h1.209v4.043c.299-.559 1.027-1.066 2.067-1.066 1.898 0 2.873 1.456 2.873 3.276 0 1.859-1.053 3.328-2.912 3.328-.923 0-1.638-.403-2.028-1.079zm3.692-3.159c0-1.352-.715-2.197-1.846-2.197-1.079 0-1.859.845-1.859 2.197s.78 2.236 1.859 2.236c1.118 0 1.846-.884 1.846-2.236m2.415 1.482c0-1.118.819-1.742 1.898-1.898l1.69-.247c.377-.052.481-.247.481-.468 0-.611-.403-1.118-1.352-1.118-.858 0-1.339.533-1.417 1.261l-1.17-.273c.13-1.196 1.209-2.028 2.561-2.028 1.872 0 2.6 1.066 2.6 2.288v3.133c0 .546.052.871.078 1.027h-1.196c-.026-.156-.065-.39-.065-.845-.273.442-.897 1.04-2.015 1.04-1.274 0-2.093-.884-2.093-1.872m2.262.845c1.001 0 1.807-.481 1.807-1.846v-.286l-1.911.286c-.52.078-.91.377-.91.936 0 .468.39.91 1.014.91m4.348-.793 1.105-.39c.078.65.572 1.17 1.456 1.17.689 0 1.066-.39 1.066-.832 0-.39-.286-.689-.806-.806l-1.066-.234c-.975-.208-1.56-.871-1.56-1.755 0-1.066 1.001-1.976 2.223-1.976 1.716 0 2.249 1.118 2.379 1.677l-1.079.403c-.052-.325-.312-1.04-1.3-1.04-.624 0-1.04.403-1.04.832 0 .377.234.65.715.754l1.014.221c1.131.247 1.729.936 1.729 1.859 0 .884-.741 1.937-2.288 1.937-1.716 0-2.444-1.105-2.548-1.82m7.192-2.145h3.419c-.026-.897-.611-1.599-1.716-1.599-1.027 0-1.651.793-1.703 1.599m3.601 1.625 1.053.364c-.351 1.105-1.352 1.976-2.808 1.976-1.677 0-3.146-1.222-3.146-3.341 0-1.963 1.417-3.302 2.99-3.302 1.924 0 3.003 1.326 3.003 3.276 0 .156-.013.312-.026.39h-4.706c.026 1.118.832 1.898 1.885 1.898 1.014 0 1.521-.559 1.755-1.261"/><rect width="167" height="29" x=".5" y=".5" stroke="#2e2e2e" rx="3.5"/></g><defs><linearGradient id="c" x1="17.432" x2="22.618" y1="14.801" y2="16.943" gradientUnits="userSpaceOnUse"><stop stop-color="#249361"/><stop offset="1" stop-color="#3ecf8e"/></linearGradient><linearGradient id="d" x1="15.144" x2="17.554" y1="11.619" y2="16.089" gradientUnits="userSpaceOnUse"><stop/><stop offset="1" stop-opacity="0"/></linearGradient><clipPath id="a"><path fill="#fff" d="M0 0h168v30H0z"/></clipPath><clipPath id="b"><path fill="#fff" d="M10.5 7.632h14v14.737h-14z"/></clipPath></defs></svg>
